lib/brands/icons/twitch.svg

<svg xmlns="http://www.w3.org/2000/svg" fill="none" aria-hidden="true" viewBox="0 0 48 48"><g id="twitch-Icon"><g id="Vector"><path fill="#6441A4" fill-rule="evenodd" d="M8.69922 13.5653L10.7862 8H39.3017V27.4797L30.9544 35.824H24.6952L20.5235 40H16.3478V35.824H8.69922V13.5653ZM36.5199 10.7809H13.5663V30.9558H19.8298V35.1261L24.0002 30.9558H31.6499L36.5199 26.0855V10.7809Z" clip-rule="evenodd"/><path fill="#6441A4" fill-rule="evenodd" d="M31.6502 24.6961H28.8684V16.3492H31.6502V24.6961ZM24.0005 24.6961H21.2182V16.3492H24.0005V24.6961Z" clip-rule="evenodd"/></g></g></svg>

<svg xmlns="http://www.w3.org/2000/svg" fill="none" aria-hidden="true" viewBox="0 0 48 48"><path fill="#6441A4" fill-rule="evenodd" d="M8.699 13.565 10.786 8H39.3v19.48l-8.347 8.344h-6.26L20.525 40h-4.177v-4.176H8.7V13.565Zm27.82-2.784H13.567v20.175h6.263v4.17l4.17-4.17h7.65l4.87-4.87V10.78Z" clip-rule="evenodd"/><path fill="#6441A4" fill-rule="evenodd" d="M31.65 24.696h-2.782V16.35h2.782v8.347Zm-7.65 0h-2.782V16.35H24v8.347Z" clip-rule="evenodd"/></svg>
